src/assets/icons/internet-communication,fancy,internet.svg

<svg width="48" height="48" viewBox="0 0 48 48" fill="none" xmlns="http://www.w3.org/2000/svg">
<rect opacity="0.2" x="2" y="2" width="44" height="44" rx="22" fill="black"/>
<path d="M25.8987 38.8818C25.2768 38.9598 24.6431 39 24 39C23.3569 39 22.7232 38.9598 22.1013 38.8818C19.6958 34.9862 18.3445 30.1353 18.0874 25.25H29.9126C29.6554 30.1353 28.3042 34.9862 25.8987 38.8818Z" fill="black"/>
<path d="M29.2073 38.078C34.5793 36.1039 38.5105 31.1632 39 25.25H32.4243C32.2064 29.6996 31.1422 34.18 29.2073 38.078Z" fill="black"/>
<path d="M32.4577 22.75H39C38.5169 16.9147 34.6823 12.0265 29.4189 10.0015C31.3595 13.7224 32.3556 18.2021 32.4577 22.75Z" fill="black"/>
<path d="M25.9662 9.12683C25.3227 9.04316 24.6664 9 24 9C23.3336 9 22.6773 9.04316 22.0337 9.12683C19.5335 12.6981 18.1759 17.5914 18.0515 22.75H29.9485C29.824 17.5914 28.4664 12.698 25.9662 9.12683Z" fill="black"/>
<path d="M15.5756 25.25C15.7935 29.6996 16.8577 34.1799 18.7926 38.078C13.4206 36.1039 9.4895 31.1632 9 25.25H15.5756Z" fill="black"/>
<path d="M15.5423 22.75C15.6444 18.2022 16.6404 13.7224 18.581 10.0016C13.3177 12.0265 9.48305 16.9147 9 22.75H15.5423Z" fill="black"/>
<path opacity="0.2" fill-rule="evenodd" clip-rule="evenodd" d="M24 46C36.1503 46 46 36.1503 46 24C46 11.8497 36.1503 2 24 2C11.8497 2 2 11.8497 2 24C2 36.1503 11.8497 46 24 46ZM42.8571 24C42.8571 34.4145 34.4145 42.8571 24 42.8571C13.5855 42.8571 5.14283 34.4145 5.14283 24C5.14283 13.5855 13.5855 5.14285 24 5.14285C34.4145 5.14285 42.8571 13.5855 42.8571 24Z" fill="black"/>
</svg>

<svg xmlns="http://www.w3.org/2000/svg" width="48" height="48" fill="none" viewBox="0 0 48 48">
  <rect width="44" height="44" x="2" y="2" fill="#000" opacity=".2" rx="22"/>
  <path fill="#000" d="M25.899 38.882a15.252 15.252 0 01-3.798 0c-2.405-3.896-3.756-8.747-4.014-13.632h11.826c-.258 4.885-1.609 9.736-4.014 13.632zM29.207 38.078C34.58 36.104 38.51 31.163 39 25.25h-6.576c-.218 4.45-1.282 8.93-3.217 12.828zM32.458 22.75H39c-.483-5.835-4.318-10.723-9.581-12.748 1.94 3.72 2.937 8.2 3.039 12.748zM25.966 9.127a15.244 15.244 0 00-3.932 0c-2.5 3.571-3.858 8.464-3.982 13.623h11.896c-.124-5.159-1.482-10.052-3.982-13.623zM15.576 25.25c.217 4.45 1.282 8.93 3.217 12.828C13.42 36.104 9.49 31.163 9 25.25h6.576zM15.542 22.75c.102-4.548 1.098-9.028 3.039-12.748C13.318 12.026 9.483 16.915 9 22.75h6.542z"/>
  <path fill="#000" fill-rule="evenodd" d="M24 46c12.15 0 22-9.85 22-22S36.15 2 24 2 2 11.85 2 24s9.85 22 22 22zm18.857-22c0 10.414-8.443 18.857-18.857 18.857-10.415 0-18.857-8.443-18.857-18.857C5.143 13.585 13.585 5.143 24 5.143c10.414 0 18.857 8.442 18.857 18.857z" clip-rule="evenodd" opacity=".2"/>
</svg>
